public/icons/bottomNavbar/more.svg

<svg xmlns="http://www.w3.org/2000/svg" width="21" height="17" fill="none"><path fill="currentColor" d="M0 0v3.4h21V0H0Zm0 6.8v3.4h21V6.8H0Zm0 6.8V17h21v-3.4H0Z"></path></svg>

<svg width="21" height="17" viewBox="0 0 21 17" fill="none" xmlns="http://www.w3.org/2000/svg">
<path d="M0 0V3.4H21V0H0ZM0 6.8V10.2H21V6.8H0ZM0 13.6V17H21V13.6H0Z" fill="currentColor"/>
</svg>
